X: 26
T: Castle, The
C: Sean Ryan
Z: Em G
S: https://thesession.org/tunes/273#setting54275
R: jig
M: 6/8
L: 1/8
K: Ador
|:c3 B3|AGE DB,G,|A,3 E3|DEG AGE|
c2A BAG|AGE DB,G,|A,3 EGE|DB,G, A,2 B:|
|:cBA a3|bag edB|GBd g3|GBd cBA|
c3 dcd|ede gab|age dBG|EFG A2 B:|

%-------------------- TUNE SEPARATOR --------------------%

